X:2072
T:Die Eselkrone
T:"Glogauer Liederbuch" no. 147
C:anon.
O:Germany
B:Glogauer Liederbuch no. 147
Z:Transcribed by Frank Nordberg - http://www.musicaviva.com
F:http://abc.musicaviva.com/tunes/germany/eselkrone.abc
V:2 alto
V:3 bass
M:C
L:1/1
K:Gmix
V:1
G2DE|DGFD|zA_Bc|dGzd|c_B/AG/G-|G/^F/^F/E/GD-|D/E/F/G/A>G|FE>DD-|
D^CD2-|D2zD-|D/E/FGD|E/G^F/GA|G/cd/eA/B/|c/AG/A/c/B|A/d^c/d/A/_B/>A/|F2z2|
G>AG/_B/c/d/-|d/c/_B/AD/F/E/-|E/D^C/D2|zd>c_B|Az/dc/d/_B/|A>GA_B|A/G/G2^F|HG4|]
V:2
z2G,2|D,E,D,G,|F,D,zA,|_B,CDG,|zDC_B,|A,2G,>F,|G,D,>E,F,/G,/|A,>G,A,F,|
E,2D,2|zD,>E,F,|G,D,E,/G,F,/|G,A,G,/CD/|EA,/B,/C/A,G,/|A,/4B,/4C/B,A,z/D/-|D/F/ED>C|D3/2C//_B,//A,2|
z2G,A,/G,/|_B,/C/DC/_B,/A,|D,/F,/E,D,2-|D,2zD-|D/C/_B,A,z/D/-|D/C/D/_B,/A,G,|F,_B,A,2|HG,4|]
V:3
G,,2G,,C,|B,,C,D,/_B,,G,,/|D,/>E,/F,G,F,|D,C,_B,,z/_B,/|A,/F,/G,/D,/F,/E,/G,|D,z/D,/G,,/C,/_B,,|G,,D,D,2|D,A,,D,2|
A,,2z_B,,-|_B,,G,,_B,,/C,/D,/_B,,/|G,,/C,/_B,,/D,/C,_B,,|z/G,,/D,E,/C,/F,|C,/A,,G,,/C,F,/E,/|A,,E,F,G,|D,A,D,/F,/G,|D,4|
G,,C,G,,F,,/_B,,/|G,,/A,,/G,,/D,/F,/G,/D,/A,,/|_B,,/D,/A,,_B,,G,,-|G,,/A,,/_B,,/G,,/_B,,/C,/G,,|F,,G,,D,/A,,/_B,,/G,,/|F,,z/G,,/D,_B,,/G,,/|D,G,,D,2|HG,,4|]
W:
W:
W:  From Musica Viva - http://www.musicaviva.com
W:  the Internet center for free sheet music downloads.
